icons/svg/shields/h_topo_shelter_shield.svg

<?xml version="1.0" encoding="UTF-8" standalone="no"?>
<!-- Created with Inkscape (http://www.inkscape.org/) -->

<svg
   xmlns:dc="http://purl.org/dc/elements/1.1/"
   xmlns:cc="http://creativecommons.org/ns#"
   xmlns:rdf="http://www.w3.org/1999/02/22-rdf-syntax-ns#"
   xmlns:svg="http://www.w3.org/2000/svg"
   xmlns="http://www.w3.org/2000/svg"
   xmlns:sodipodi="http://sodipodi.sourceforge.net/DTD/sodipodi-0.dtd"
   xmlns:inkscape="http://www.inkscape.org/namespaces/inkscape"
   version="1.0"
   width="16"
   height="16"
   id="svg2"
   sodipodi:version="0.32"
   inkscape:version="0.91 r13725"
   sodipodi:docname="h_topo_shelter_shield.svg"
   inkscape:output_extension="org.inkscape.output.svg.inkscape">
  <metadata
     id="metadata10">
    <rdf:RDF>
      <cc:Work
         rdf:about="">
        <dc:format>image/svg+xml</dc:format>
        <dc:type
           rdf:resource="http://purl.org/dc/dcmitype/StillImage" />
        <cc:license
           rdf:resource="http://web.resource.org/cc/PublicDomain" />
        <dc:language>en</dc:language>
        <dc:title />
      </cc:Work>
    </rdf:RDF>
  </metadata>
  <sodipodi:namedview
     inkscape:window-height="1006"
     inkscape:window-width="1920"
     inkscape:pageshadow="2"
     inkscape:pageopacity="0.0"
     guidetolerance="10.0"
     gridtolerance="10.0"
     objecttolerance="10.0"
     borderopacity="1.0"
     bordercolor="#666666"
     pagecolor="#ffffff"
     id="base"
     showgrid="false"
     inkscape:zoom="33.937499"
     inkscape:cx="5.3953562"
     inkscape:cy="8.7952381"
     inkscape:window-x="1920"
     inkscape:window-y="0"
     inkscape:current-layer="svg2"
     inkscape:window-maximized="1"
     showguides="true"
     inkscape:guide-bbox="true" />
  <defs
     id="defs4">
    <inkscape:perspective
       sodipodi:type="inkscape:persp3d"
       inkscape:vp_x="0 : 290 : 1"
       inkscape:vp_y="0 : 1000 : 0"
       inkscape:vp_z="580 : 290 : 1"
       inkscape:persp3d-origin="290 : 193.33333 : 1"
       id="perspective12" />
    <style
       type="text/css"
       id="style6">
   
    .fil0 {fill:#EF7900}
   
  </style>
    <inkscape:perspective
       id="perspective6807"
       inkscape:persp3d-origin="29.116032 : 19.410688 : 1"
       inkscape:vp_z="58.232063 : 29.116032 : 1"
       inkscape:vp_y="0 : 1000 : 0"
       inkscape:vp_x="0 : 29.116032 : 1"
       sodipodi:type="inkscape:persp3d" />
    <inkscape:perspective
       id="perspective6954"
       inkscape:persp3d-origin="290 : 193.33333 : 1"
       inkscape:vp_z="580 : 290 : 1"
       inkscape:vp_y="0 : 1000 : 0"
       inkscape:vp_x="0 : 290 : 1"
       sodipodi:type="inkscape:persp3d" />
    <inkscape:perspective
       id="perspective2541"
       inkscape:persp3d-origin="240 : 160 : 1"
       inkscape:vp_z="480 : 240 : 1"
       inkscape:vp_y="0 : 1000 : 0"
       inkscape:vp_x="0 : 240 : 1"
       sodipodi:type="inkscape:persp3d" />
    <inkscape:perspective
       id="perspective2750"
       inkscape:persp3d-origin="215 : 143.33333 : 1"
       inkscape:vp_z="430 : 215 : 1"
       inkscape:vp_y="0 : 1000 : 0"
       inkscape:vp_x="0 : 215 : 1"
       sodipodi:type="inkscape:persp3d" />
    <inkscape:perspective
       id="perspective3730"
       inkscape:persp3d-origin="88.929146 : 101.19778 : 1"
       inkscape:vp_z="177.85829 : 151.79668 : 1"
       inkscape:vp_y="0 : 1000 : 0"
       inkscape:vp_x="0 : 151.79668 : 1"
       sodipodi:type="inkscape:persp3d" />
    <marker
       inkscape:stockid="TriangleInM"
       orient="auto"
       refY="0"
       refX="0"
       id="TriangleInM-3"
       style="overflow:visible"
       inkscape:isstock="true">
      <path
         inkscape:connector-curvature="0"
         id="path4303-6"
         d="m 5.77,0 -8.65,5 0,-10 8.65,5 z"
         style="fill:#ffffff;fill-opacity:1;fill-rule:evenodd;stroke:#ffffff;stroke-width:1pt;stroke-opacity:1"
         transform="scale(-0.4,-0.4)" />
    </marker>
    <marker
       inkscape:stockid="TriangleOutM"
       orient="auto"
       refY="0"
       refX="0"
       id="TriangleOutM-7"
       style="overflow:visible"
       inkscape:isstock="true">
      <path
         inkscape:connector-curvature="0"
         id="path4312-5"
         d="m 5.77,0 -8.65,5 0,-10 8.65,5 z"
         style="fill:#ffffff;fill-opacity:1;fill-rule:evenodd;stroke:#ffffff;stroke-width:1pt;stroke-opacity:1"
         transform="scale(0.4,0.4)" />
    </marker>
    <marker
       inkscape:stockid="TriangleInM"
       orient="auto"
       refY="0"
       refX="0"
       id="TriangleInM"
       style="overflow:visible"
       inkscape:isstock="true">
      <path
         inkscape:connector-curvature="0"
         id="path4303"
         d="m 5.77,0 -8.65,5 0,-10 8.65,5 z"
         style="fill:#ffffff;fill-opacity:1;fill-rule:evenodd;stroke:#ffffff;stroke-width:1pt;stroke-opacity:1"
         transform="scale(-0.4,-0.4)" />
    </marker>
    <marker
       inkscape:stockid="TriangleOutM"
       orient="auto"
       refY="0"
       refX="0"
       id="TriangleOutM"
       style="overflow:visible"
       inkscape:isstock="true">
      <path
         inkscape:connector-curvature="0"
         id="path4312"
         d="m 5.77,0 -8.65,5 0,-10 8.65,5 z"
         style="fill:#ffffff;fill-opacity:1;fill-rule:evenodd;stroke:#ffffff;stroke-width:1pt;stroke-opacity:1"
         transform="scale(0.4,0.4)" />
    </marker>
    <marker
       inkscape:stockid="TriangleInM"
       orient="auto"
       refY="0"
       refX="0"
       id="TriangleInM-3-3"
       style="overflow:visible"
       inkscape:isstock="true">
      <path
         inkscape:connector-curvature="0"
         id="path4303-6-6"
         d="m 5.77,0 -8.65,5 0,-10 8.65,5 z"
         style="fill:#ffffff;fill-opacity:1;fill-rule:evenodd;stroke:#ffffff;stroke-width:1pt;stroke-opacity:1"
         transform="scale(-0.4,-0.4)" />
    </marker>
    <marker
       inkscape:stockid="TriangleOutM"
       orient="auto"
       refY="0"
       refX="0"
       id="TriangleOutM-7-7"
       style="overflow:visible"
       inkscape:isstock="true">
      <path
         inkscape:connector-curvature="0"
         id="path4312-5-5"
         d="m 5.77,0 -8.65,5 0,-10 8.65,5 z"
         style="fill:#ffffff;fill-opacity:1;fill-rule:evenodd;stroke:#ffffff;stroke-width:1pt;stroke-opacity:1"
         transform="scale(0.4,0.4)" />
    </marker>
    <marker
       inkscape:stockid="TriangleInM"
       orient="auto"
       refY="0"
       refX="0"
       id="TriangleInM-3-5"
       style="overflow:visible"
       inkscape:isstock="true">
      <path
         inkscape:connector-curvature="0"
         id="path4303-6-62"
         d="m 5.77,0 -8.65,5 0,-10 8.65,5 z"
         style="fill:#ffffff;fill-opacity:1;fill-rule:evenodd;stroke:#ffffff;stroke-width:1pt;stroke-opacity:1"
         transform="scale(-0.4,-0.4)" />
    </marker>
    <marker
       inkscape:stockid="TriangleOutM"
       orient="auto"
       refY="0"
       refX="0"
       id="TriangleOutM-7-9"
       style="overflow:visible"
       inkscape:isstock="true">
      <path
         inkscape:connector-curvature="0"
         id="path4312-5-1"
         d="m 5.77,0 -8.65,5 0,-10 8.65,5 z"
         style="fill:#ffffff;fill-opacity:1;fill-rule:evenodd;stroke:#ffffff;stroke-width:1pt;stroke-opacity:1"
         transform="scale(0.4,0.4)" />
    </marker>
    <marker
       inkscape:stockid="TriangleInM"
       orient="auto"
       refY="0"
       refX="0"
       id="TriangleInM-3-0"
       style="overflow:visible"
       inkscape:isstock="true">
      <path
         inkscape:connector-curvature="0"
         id="path4303-6-9"
         d="m 5.77,0 -8.65,5 0,-10 8.65,5 z"
         style="fill:#ffffff;fill-opacity:1;fill-rule:evenodd;stroke:#ffffff;stroke-width:1pt;stroke-opacity:1"
         transform="scale(-0.4,-0.4)" />
    </marker>
    <marker
       inkscape:stockid="TriangleOutM"
       orient="auto"
       refY="0"
       refX="0"
       id="TriangleOutM-7-3"
       style="overflow:visible"
       inkscape:isstock="true">
      <path
         inkscape:connector-curvature="0"
         id="path4312-5-6"
         d="m 5.77,0 -8.65,5 0,-10 8.65,5 z"
         style="fill:#ffffff;fill-opacity:1;fill-rule:evenodd;stroke:#ffffff;stroke-width:1pt;stroke-opacity:1"
         transform="scale(0.4,0.4)" />
    </marker>
    <marker
       inkscape:stockid="TriangleInM"
       orient="auto"
       refY="0"
       refX="0"
       id="TriangleInM-0"
       style="overflow:visible"
       inkscape:isstock="true">
      <path
         inkscape:connector-curvature="0"
         id="path4303-62"
         d="m 5.77,0 -8.65,5 0,-10 8.65,5 z"
         style="fill:#ffffff;fill-opacity:1;fill-rule:evenodd;stroke:#ffffff;stroke-width:1pt;stroke-opacity:1"
         transform="scale(-0.4,-0.4)" />
    </marker>
    <marker
       inkscape:stockid="TriangleOutM"
       orient="auto"
       refY="0"
       refX="0"
       id="TriangleOutM-6"
       style="overflow:visible"
       inkscape:isstock="true">
      <path
         inkscape:connector-curvature="0"
         id="path4312-1"
         d="m 5.77,0 -8.65,5 0,-10 8.65,5 z"
         style="fill:#ffffff;fill-opacity:1;fill-rule:evenodd;stroke:#ffffff;stroke-width:1pt;stroke-opacity:1"
         transform="scale(0.4,0.4)" />
    </marker>
    <marker
       inkscape:stockid="TriangleInM"
       orient="auto"
       refY="0"
       refX="0"
       id="TriangleInM-3-0-8"
       style="overflow:visible"
       inkscape:isstock="true">
      <path
         inkscape:connector-curvature="0"
         id="path4303-6-9-7"
         d="m 5.77,0 -8.65,5 0,-10 8.65,5 z"
         style="fill:#ffffff;fill-opacity:1;fill-rule:evenodd;stroke:#ffffff;stroke-width:1pt;stroke-opacity:1"
         transform="scale(-0.4,-0.4)" />
    </marker>
    <marker
       inkscape:stockid="TriangleOutM"
       orient="auto"
       refY="0"
       refX="0"
       id="TriangleOutM-7-3-9"
       style="overflow:visible"
       inkscape:isstock="true">
      <path
         inkscape:connector-curvature="0"
         id="path4312-5-6-2"
         d="m 5.77,0 -8.65,5 0,-10 8.65,5 z"
         style="fill:#ffffff;fill-opacity:1;fill-rule:evenodd;stroke:#ffffff;stroke-width:1pt;stroke-opacity:1"
         transform="scale(0.4,0.4)" />
    </marker>
  </defs>
  <path
     style="color:#000000;font-style:normal;font-variant:normal;font-weight:normal;font-stretch:normal;font-size:medium;line-height:normal;font-family:sans-serif;text-indent:0;text-align:start;text-decoration:none;text-decoration-line:none;text-decoration-style:solid;text-decoration-color:#000000;letter-spacing:normal;word-spacing:normal;text-transform:none;direction:ltr;block-progression:tb;writing-mode:lr-tb;baseline-shift:baseline;text-anchor:start;white-space:normal;clip-rule:nonzero;display:inline;overflow:visible;visibility:visible;opacity:1;isolation:auto;mix-blend-mode:normal;color-interpolation:sRGB;color-interpolation-filters:linearRGB;solid-color:#000000;solid-opacity:1;fill:#ffffff;fill-opacity:1;fill-rule:evenodd;stroke:none;stroke-width:0.49020749;stroke-linecap:round;stroke-linejoin:miter;stroke-miterlimit:4;stroke-dasharray:none;stroke-dashoffset:0;stroke-opacity:1;color-rendering:auto;image-rendering:auto;shape-rendering:auto;text-rendering:auto;enable-background:accumulate"
     d="M 9.7908622,1.1674771 C 9.560945,1.1771115 9.3348552,1.2801665 9.1764243,1.4470716 l -1.0078796,1.0380156 0.00167,0 C 8.058884,2.5995611 8.04013,2.7637683 8.0061454,2.9187099 7.8990111,2.8769355 7.8484977,2.7384443 7.7332478,2.7412427 7.7076415,2.7418594 7.690039,2.7685052 7.6646049,2.7713787 7.824893,2.5245189 7.9422168,2.2248918 7.827004,1.9526857 7.6877696,1.6237251 7.3369574,1.3965454 6.9798493,1.4052162 6.747967,1.4107678 6.5203682,1.510102 6.3587141,1.6764396 L 5.4512876,2.5838662 C 5.3000239,2.2797824 4.9846483,2.0532463 4.6443141,2.0615099 4.4124319,2.0670616 4.1848331,2.1663958 4.023179,2.3327334 L 2.3054306,4.0504818 C 1.9740038,4.382006 1.9731217,4.9853627 2.303759,5.3178654 2.4356939,5.4505457 2.6234792,5.4913622 2.8076989,5.5187716 l -0.5709086,0.5709086 -0.00167,0.00167 C 1.9039424,6.424399 1.9054198,7.027559 2.2384704,7.3587353 2.5709875,7.6893843 3.1743379,7.6885248 3.505854,7.3570637 l 0.00167,-0.00167 1.3477461,-1.3477462 0,-0.00167 C 5.1091119,5.755525 5.1901572,5.3466054 5.0511493,5.0181802 4.9336463,4.7405631 4.6319022,4.6080734 4.3362579,4.5560959 L 5.041104,3.8512497 c 0.027809,0.011343 0.056332,0.020851 0.085385,0.028462 -0.045723,0.3024095 0.1139877,0.5986244 0.3917672,0.726611 L 5.3943641,4.7302146 C 5.0629004,5.0617307 5.0620409,5.6650811 5.3926926,5.9975982 5.5014207,6.1069405 5.6595494,6.1254869 5.8078989,6.1633459 l -3.0303386,1.6156211 -0.00167,0.00167 C 2.2789835,8.0474857 2.1646548,8.8231049 2.5632603,9.2221435 l 0.3281469,0.3298211 0.00167,0.00167 C 3.1435171,9.8035496 3.5478331,9.885473 3.8758451,9.7528685 l 0.07534,-0.030139 0,3.8389837 0,0.0017 c 0.0017,0.479767 0.4377054,0.915779 0.9174719,0.917472 l 0.00167,0 0.634529,0 c 0.481966,0.0017 0.9207936,-0.435506 0.9224945,-0.917472 l 0,-0.0017 0,-4.5471779 1.729468,-0.2059289 1.6959833,0.2042547 0,4.5488521 0,0.0017 c 0.00171,0.481966 0.4405275,0.919227 0.9224945,0.917472 l 0.634529,0 0.0017,0 c 0.479733,-0.0017 0.915744,-0.43774 0.917437,-0.917507 l 0,-0.0017 0,-3.8456803 0.110498,0.043529 c 0.331016,0.1338389 0.739434,0.048963 0.989464,-0.2059287 L 13.757087,9.2204693 C 14.154035,8.820125 14.036516,8.0443844 13.539438,7.778967 L 11.39309,6.6338013 c 0.04337,-0.030115 0.107059,-0.018216 0.143983,-0.056923 l -0.03181,0.03181 0.152355,-0.1406343 c 0.03813,0.080386 0.02932,0.1798783 0.09208,0.244436 0.327429,0.3367839 0.932302,0.3442013 1.269058,0.016742 l 0.0017,0 1.314222,-1.2841255 C 14.597801,5.1982834 14.687561,4.784397 14.550667,4.4506201 14.456259,4.2204345 14.195132,4.1548083 13.963016,4.0672239 L 14.28614,3.7558193 C 14.547336,3.510593 14.637112,3.1005727 14.503788,2.7680302 14.370465,2.4354878 14.02159,2.2023654 13.663331,2.2054927 l -0.0051,0 c -0.230901,0.00369 -0.458314,0.100764 -0.621134,0.2645266 L 12.52985,2.957217 c -0.0057,-0.015953 0.01672,-0.031271 0.01005,-0.046878 C 12.398899,2.5807551 12.044379,2.3545751 11.686078,2.3662177 11.456602,2.3735896 11.2316,2.4727405 11.07164,2.6374412 L 10.172584,3.5364966 C 10.100134,3.4232096 9.9702099,3.3959215 9.8561568,3.3238709 L 10.463899,2.697713 C 10.716686,2.444084 10.793748,2.0310836 10.649737,1.7032271 10.505928,1.3758307 10.149823,1.1535917 9.7925372,1.1674771 l -0.00171,0 z m 3.9076268,2.7273024 0.0051,0 c -0.0013,2.04e-5 -0.0021,0.00165 -0.0033,0.00167 -8.21e-4,1.8e-5 -8.53e-4,-0.0017 -0.0017,-0.00167 z m -1.583811,0.2360648 c 0.04211,0.022401 0.08643,0.040357 0.132264,0.053575 -0.03725,0.2205425 0.03521,0.4454086 0.194209,0.6027187 l -0.220997,0.2143 C 12.093612,4.7891603 11.888365,4.6535318 11.647571,4.5979513 Z m -2.2802855,0.7115429 0.00334,0 c -0.042251,0.2828248 0.095123,0.5622423 0.3448894,0.7014977 -0.06353,0.1179584 -0.164514,0.216681 -0.174119,0.351586 L 9.1714016,5.4501287 c 0.015142,-0.012501 0.039333,-0.00639 0.053575,-0.02009 l 0.00167,-0.00167 z M 7.7667322,4.894288 c 0.0096,0.07729 0.052227,0.1405245 0.080363,0.2126258 -0.035942,0.013263 -0.076529,0.00906 -0.1104985,0.026788 l -0.00502,0.00335 -0.4453416,0.2377358 z m 0.3800477,0.1372859 0.00837,0 c -0.00123,1.7e-6 -0.00212,0.00167 -0.00335,0.00167 -0.00177,1.34e-5 -0.00325,-0.0017 -0.00502,-0.00167 z"
     id="path4574"
     inkscape:connector-curvature="0"
     sodipodi:nodetypes="cccccccsccccccscccsccccscccccsccccccccccccccccccccccccccccccccccscccsccsccccccccccsccccccccccccccccccccccccccccccc" />
</svg>

<svg width="16" height="16" viewBox="0 0 16 16" fill="none" xmlns="http://www.w3.org/2000/svg">
<path fill-rule="evenodd" clip-rule="evenodd" d="M9.79086 1.16749C9.56095 1.17712 9.33486 1.28018 9.17643 1.44708L8.16855 2.4851H8.17022C8.05889 2.59957 8.04013 2.76378 8.00615 2.91872C7.89901 2.87694 7.8485 2.73845 7.73325 2.74125C7.70764 2.74187 7.69004 2.76851 7.66461 2.77139C7.8249 2.52453 7.94222 2.2249 7.82701 1.95269C7.68777 1.62373 7.33696 1.39655 6.97985 1.40522C6.74797 1.41078 6.52037 1.51011 6.35872 1.67645L5.45129 2.58387C5.30003 2.27979 4.98465 2.05326 4.64432 2.06152C4.41243 2.06707 4.18484 2.1664 4.02318 2.33274L2.30543 4.05049C1.97401 4.38201 1.97312 4.98537 2.30376 5.31787C2.4357 5.45055 2.62348 5.49137 2.8077 5.51878L2.23679 6.08969L2.23512 6.09136C1.90395 6.42441 1.90542 7.02757 2.23847 7.35874C2.57099 7.68939 3.17434 7.68853 3.50586 7.35707L3.50753 7.3554L4.85527 6.00766V6.00599C5.10911 5.75553 5.19016 5.34661 5.05115 5.01819C4.93365 4.74057 4.6319 4.60808 4.33626 4.5561L5.04111 3.85126C5.06892 3.8626 5.09744 3.87211 5.12649 3.87972C5.08077 4.18213 5.24048 4.47834 5.51826 4.60633L5.39437 4.73022C5.0629 5.06174 5.06204 5.66509 5.3927 5.99761C5.50142 6.10695 5.65955 6.1255 5.8079 6.16335L2.77756 7.77898L2.77589 7.78065C2.27899 8.04749 2.16466 8.82311 2.56326 9.22215L2.89141 9.55197L2.89308 9.55364C3.14352 9.80356 3.54784 9.88548 3.87585 9.75288L3.95119 9.72274V13.5617V13.5634C3.95289 14.0432 4.38889 14.4792 4.86866 14.4809H4.87033H5.50486C5.98682 14.4826 6.42565 14.0454 6.42735 13.5634V13.5617V9.01454L8.15682 8.80861L9.85281 9.01287V13.5617V13.5634C9.85452 14.0454 10.2933 14.4826 10.7753 14.4809H11.4098H11.4115C11.8913 14.4792 12.3273 14.0432 12.329 13.5634V13.5617V9.71601L12.4395 9.75954C12.7705 9.89337 13.1789 9.8085 13.4289 9.55361L13.7571 9.22048C14.154 8.82013 14.0365 8.04439 13.5394 7.77898L11.3931 6.63381C11.4365 6.6037 11.5002 6.61559 11.5371 6.57689L11.5053 6.6087L11.6576 6.46806C11.6958 6.54845 11.6869 6.64794 11.7497 6.7125C12.0771 7.04928 12.682 7.0567 13.0188 6.72924H13.0205L14.3347 5.44512C14.5978 5.19829 14.6876 4.78441 14.5507 4.45063C14.4563 4.22044 14.1951 4.15482 13.963 4.06723L14.2861 3.75583C14.5473 3.5106 14.6371 3.10058 14.5038 2.76804C14.3705 2.4355 14.0216 2.20237 13.6633 2.2055H13.6582C13.4273 2.20919 13.1999 2.30627 13.0371 2.47003L12.5299 2.95723C12.5242 2.94127 12.5466 2.92595 12.5399 2.91035C12.3989 2.58076 12.0444 2.35458 11.6861 2.36623C11.4566 2.3736 11.2316 2.47275 11.0716 2.63745L10.1726 3.53651C10.1001 3.42322 9.97021 3.39593 9.85616 3.32388L10.4639 2.69772C10.7167 2.44409 10.7938 2.03109 10.6497 1.70324C10.5059 1.37584 10.1498 1.1536 9.79254 1.16749H9.79083H9.79086ZM13.6985 3.89479H13.7036C13.7023 3.89481 13.7015 3.89644 13.7003 3.89646C13.6995 3.89648 13.6994 3.89476 13.6986 3.89479H13.6985ZM12.1147 4.13085C12.1568 4.15325 12.2011 4.17121 12.2469 4.18443C12.2097 4.40497 12.2822 4.62984 12.4412 4.78715L12.2202 5.00145C12.0936 4.78917 11.8884 4.65354 11.6476 4.59796L12.1147 4.13085ZM9.8344 4.8424H9.83774C9.79548 5.12522 9.93286 5.40464 10.1826 5.54389C10.1191 5.66185 10.0181 5.76057 10.0085 5.89548L9.1714 5.45014C9.18655 5.43764 9.21074 5.44375 9.22498 5.43005L9.22665 5.42838L9.8344 4.8424ZM7.76674 4.8943C7.77634 4.97159 7.81896 5.03482 7.8471 5.10692C7.81116 5.12019 7.77057 5.11598 7.7366 5.13371L7.73158 5.13706L7.28624 5.3748L7.76674 4.8943ZM8.14678 5.03158H8.15515C8.15392 5.03158 8.15303 5.03325 8.1518 5.03325C8.15003 5.03327 8.14855 5.03155 8.14678 5.03158Z" fill="white"/>
</svg>
